X: 36425
T: Seanamhac Tube Station
R: jig
M: 6/8
K: Gdorian
|:GFD DCD|GA/=B/c ~d3|dcA cAF|GFD CDF|
GFD DCD|GA/=B/c d2f|dcA cAF|1 G2A B2A:|2 ~G3 G2c||
|:~d3 dcA|~c3 cAc|dcA cAF|GFD CDF|
[1 ded dcA|cdc gec|dcA cAF|~G3 G2c:|
[2 GFD GFD|GFD dcA|dcA dcA|~G3 G2c||
|:~d3 ~g3|f2g a2f|g2d c2d|cAG F3|
[1 ~d3 ~g3|f2g a2g|fdc AGF|G3 G2c:|
[2 GFD GFD|GFD dcA|dcA dcA|G2A B2A||

